assets/fc/fc-department.svg

<svg xmlns="http://www.w3.org/2000/svg" width="100%" height="100%" viewBox="0 0 48 48"><path fill="#C5CAE9" d="M42 42H6V9l18-7 18 7z"/><path fill="#9FA8DA" d="M6 42h36v2H6z"/><path fill="#BF360C" d="M20 35h8v9h-8z"/><g fill="#1565C0"><path d="M31 27h6v5h-6zM21 27h6v5h-6zM11 27h6v5h-6zM31 35h6v5h-6zM11 35h6v5h-6zM31 19h6v5h-6zM21 19h6v5h-6zM11 19h6v5h-6zM31 11h6v5h-6zM21 11h6v5h-6zM11 11h6v5h-6z"/></g></svg>

<svg xmlns="http://www.w3.org/2000/svg" width="100%" height="100%" viewBox="0 0 48 48"><path fill="#C5CAE9" d="M42 42L6 42 6 9 24 2 42 9z"/><path fill="#9FA8DA" d="M6 42H42V44H6z"/><path fill="#BF360C" d="M20 35H28V44H20z"/><g fill="#1565C0"><path d="M31 27H37V32H31zM21 27H27V32H21zM11 27H17V32H11zM31 35H37V40H31zM11 35H17V40H11zM31 19H37V24H31zM21 19H27V24H21zM11 19H17V24H11zM31 11H37V16H31zM21 11H27V16H21zM11 11H17V16H11z"/></g></svg>
